X: 39267
T: Tailor's Thimble, The
R: reel
M: 4/4
K: Adorian
cAAG A3B|cA3 dBGB|cAAG ABcd|1 efge dBGB:|2 efge dega||
b2bg a2ga|bage dega|bg3 abgd|efge dega|
b2bg a2ga|bage dega|bg2b aged|efge dBGB||

